X: 10051
T: KRISTEN'S WALTZ
C: Bob McQuillen 11 Nov 93
B: Bob's Note Book 10 #51
%R: D
Z: 2020 John Chambers <jc:trillian.mit.edu>
M: 3/4
L: 1/4
K: D
DE \
| "D"F3 | "A7"EDE | "D"F3 | D2E | F3 | "A7"EFG |"D7"A3 | FGA || "G"B3 | Bcd | "D"A3 | "Bm"d2e | "G6" f3 | edB | "A7"eAB | cde |
| "D"f3 | "A7"ede | "D"f2d | Ade | fg>f | "A7"edc | "D"d3- | "D7"d2A || "G"d>ed | dcB | "D"Adf | "G"a2A | "E7"B>cd | "A7"e2f | "D"d3- | d |]
[| FA \
| "D"f3 | "A7"efg | "D"fd>B | A3 | f3 | "A7"gfg | "D7"a3- | a3 || "G"b3 | gab | "D"a2f | "Bm"d2e | "G6"f3 | gab | "A7"a3- | a2g |
| "D"fg>f | "A7"ede | "D"fdB | AFA | "G"Bcd | "A7"edc | "D7"d3- | d2A || "G"B>cd | ede | "D"fd>B | "G"Aag | "D"f3 | "A7"e3 | "D"d3- | d |]
%%begintext align
%% When my son Bill married
%% Kristen, he showed a wisdom far beyond his years, for
%% she is one dandy lady, and besides that she is a great carrot
%% cooker. So based on this, it necesarily followed that a waltz
%% should appear with your name on it, Kris - so here it is,
%% with much love from the I.G.
%%endtext

%%sep 1 1 500

%%sep 1 1 500

